www/assets/icons/vignette.svg

<svg width="24" height="24" viewBox="0 0 24 24" xmlns="http://www.w3.org/2000/svg" fill='currentColor'><path d="M21 3H3C1.9 3 1 3.9 1 5V19C1 20.1 1.9 21 3 21H21C22.1 21 23 20.1 23 19V5C23 3.9 22.1 3 21 3ZM12 18C7.58 18 4 15.31 4 12C4 8.69 7.58 6 12 6C16.42 6 20 8.69 20 12C20 15.31 16.42 18 12 18Z"/></svg>

<svg xmlns="http://www.w3.org/2000/svg" width="24" height="24" viewBox="0 0 24 24" fill='currentColor'><path d="M21 3H3c-1.1 0-2 .9-2 2v14c0 1.1.9 2 2 2h18c1.1 0 2-.9 2-2V5c0-1.1-.9-2-2-2m-9 15c-4.42 0-8-2.69-8-6s3.58-6 8-6 8 2.69 8 6-3.58 6-8 6"/></svg>
